Newaita-dark/apps/48/com.github.bcedu.shutdownscheduler.svg

<svg height="48pt" viewBox="0 0 48 48" width="48pt" xmlns="http://www.w3.org/2000/svg" xmlns:xlink="http://www.w3.org/1999/xlink"><linearGradient id="a"><stop offset="0" stop-opacity=".313725"/><stop offset=".222222" stop-opacity=".27451"/><stop offset="1" stop-opacity="0"/></linearGradient><radialGradient id="b" cx="450.90894" cy="189.57936" gradientTransform="matrix(.00000026 -.117199 -.210958 -.00000015 66.784728 95.392998)" gradientUnits="userSpaceOnUse" r="21.166656" xlink:href="#a"/><radialGradient id="c" cx="450.90894" cy="189.57936" gradientTransform="matrix(-.00000026 .117199 .210958 .00000015 -19.155181 -11.291222)" gradientUnits="userSpaceOnUse" r="21.166656" xlink:href="#a"/><radialGradient id="d" cx="450.90894" cy="189.57936" gradientTransform="matrix(-.00000026 -.117199 .210958 -.00000015 -19.155181 95.392998)" gradientUnits="userSpaceOnUse" r="21.166656" xlink:href="#a"/><radialGradient id="e" cx="450.90894" cy="189.57936" gradientTransform="matrix(.00000026 .117199 -.210958 .00000015 66.784725 -11.291223)" gradientUnits="userSpaceOnUse" r="21.166656" xlink:href="#a"/><linearGradient id="f" gradientTransform="matrix(.0200401 0 0 .093759 18.698079 20.158175)" gradientUnits="userSpaceOnUse" x1="255.32306" x2="255.32304" y1="233.5" y2="254.66666"><stop offset="0" stop-opacity=".27451"/><stop offset="1" stop-opacity="0"/></linearGradient><linearGradient id="g" gradientUnits="userSpaceOnUse" x1="254" x2="254" y1="-168.66667" y2="233.5"><stop offset="0" stop-color="#616161"/><stop offset="1" stop-color="#424242"/></linearGradient><linearGradient id="h" gradientUnits="userSpaceOnUse" x1="23.814816" x2="23.814816" y1="42.05096669922" y2="4.34417296272"><stop offset="0" stop-color="#bdbdbd"/><stop offset="1" stop-color="#e0e0e0"/></linearGradient><path d="m27.289062 42.050781h3.96875v-1.984375h-3.96875zm0 0" fill="url(#b)"/><path d="m20.339844 42.050781h-3.96875v1.984375h3.96875zm0 0" fill="url(#c)"/><path d="m20.339844 42.050781h-3.96875v-1.984375h3.96875zm0 0" fill="url(#d)"/><path d="m27.289062 42.050781h3.96875v1.984375h-3.96875zm0 0" fill="url(#e)"/><path d="m20.339844 41.554688h6.949218v2.480468h-6.949218zm0 0" fill="url(#f)"/><path d="m254.017409-168.671091c111.031064 0 201.064133 90.033069 201.064133 201.105795 0 111.031064-90.033069 201.064133-201.064133 201.064133-111.072726 0-201.105795-90.033069-201.105795-201.064133 0-111.072726 90.033069-201.105795 201.105795-201.105795zm0 0" fill="url(#g)" stroke="#333" stroke-linecap="round" stroke-width="3" transform="matrix(.093759 0 0 .093759 0 20.158175)"/><path d="m23.816406 42.050781c-10.445312 0-18.855468-8.410156-18.855468-18.851562 0-.0625 0-.125 0-.1875.101562 10.359375 8.472656 18.667969 18.855468 18.667969 10.382813 0 18.753906-8.308594 18.851563-18.667969v.1875c0 10.441406-8.410157 18.851562-18.851563 18.851562zm0 0" fill-opacity=".196078"/><path d="m23.816406 4.34375c-10.445312 0-18.855468 8.410156-18.855468 18.855469v.183593c.101562-10.359374 8.472656-18.667968 18.855468-18.667968 10.382813 0 18.753906 8.308594 18.851563 18.667968 0-.0625 0-.125 0-.183593 0-10.445313-8.410157-18.855469-18.851563-18.855469zm0 0" fill="#fff" fill-opacity=".392157"/><path d="m23.816406 4.203125c-10.523437 0-18.996094 8.472656-18.996094 18.996094 0 10.519531 8.472657 18.992187 18.996094 18.992187 10.519532 0 18.992188-8.472656 18.992188-18.992187 0-10.523438-8.472656-18.996094-18.992188-18.996094zm0 .28125c10.367188 0 18.710938 8.34375 18.710938 18.714844 0 10.367187-8.34375 18.710937-18.710938 18.710937-10.371094 0-18.714844-8.34375-18.714844-18.710937 0-10.371094 8.34375-18.714844 18.714844-18.714844zm0 0" fill="#212121"/><path d="m23.800781 12.269531c-.546875.007813-.984375.457031-.976562 1.003907v9.925781c0 .546875.445312.988281.992187.988281h6.945313c.355469.007812.691406-.179688.871093-.488281.179688-.3125.179688-.691407 0-1-.179687-.308594-.515624-.496094-.871093-.492188h-5.957031v-8.933593c.003906-.265626-.101563-.523438-.289063-.714844-.191406-.1875-.449219-.292969-.714844-.289063zm5.695313.625c-.441406.015625-.820313.316407-.929688.746094-.109375.425781.078125.871094.457032 1.097656 2.832031 1.742188 4.714843 4.863281 4.714843 8.460938 0 5.511719-4.410156 9.921875-9.921875 9.921875-5.515625 0-9.925781-4.410156-9.925781-9.921875 0-3.597657 1.882813-6.71875 4.71875-8.460938.382813-.230469.566406-.683593.449219-1.113281-.117188-.429688-.507813-.726562-.953125-.730469-.191407 0-.375.054688-.535157.15625-3.402343 2.089844-5.660156 5.855469-5.660156 10.148438 0 6.578125 5.324219 11.902343 11.90625 11.902343 6.578125 0 11.902344-5.324218 11.902344-11.902343 0-4.292969-2.257812-8.058594-5.660156-10.148438-.167969-.109375-.363282-.164062-.5625-.15625zm0 0" fill="url(#h)"/><path d="m23.800781 12.269531c-.546875.007813-.984375.457031-.976562 1.003907v.628906c-.007813-.546875.429687-.996094.976562-1.003906.265625-.003907.523438.101562.714844.289062.1875.1875.292969.445312.289063.714844v-.628906c.003906-.265626-.101563-.523438-.289063-.714844-.191406-.1875-.449219-.292969-.714844-.289063zm5.695313.625c-.3125.011719-.601563.167969-.78125.425781-.179688.257813-.226563.582032-.125.878907.128906-.394531.492187-.664063.90625-.675781.199218-.007813.394531.046874.5625.152343 3.320312 2.042969 5.550781 5.679688 5.65625 9.84375.003906-.109375.003906-.214843.003906-.320312 0-4.292969-2.257812-8.058594-5.660156-10.148438-.167969-.109375-.363282-.164062-.5625-.15625zm-11.390625 0c-.191407 0-.375.054688-.535157.15625-3.402343 2.089844-5.660156 5.855469-5.660156 10.148438 0 .105469 0 .210937.003906.320312.105469-4.164062 2.335938-7.800781 5.65625-9.84375.160157-.101562.34375-.152343.535157-.152343.425781 0 .800781.273437.933593.675781.101563-.300781.050782-.632813-.132812-.890625-.183594-.257813-.484375-.410156-.800781-.414063zm6.699219 9.3125v.628907h5.957031c.429687-.007813.816406.265624.953125.675781.101562-.304688.050781-.640625-.140625-.898438-.1875-.261719-.492188-.410156-.8125-.40625zm-10.910157 1.304688c-.003906.101562-.003906.207031-.003906.3125 0 5.515625 4.410156 9.925781 9.925781 9.925781 5.511719 0 9.921875-4.410156 9.921875-9.925781 0-.105469 0-.210938-.003906-.3125-.164063 5.367187-4.507813 9.609375-9.917969 9.609375s-9.757812-4.242188-9.921875-9.609375zm0 0" fill="#fff"/><path d="m28.671875 14.378906c-.273437.46875-.117187 1.070313.351563 1.347656 2.703124 1.664063 4.539062 4.578126 4.703124 7.964844.007813-.164062.011719-.328125.011719-.496094 0-3.597656-1.882812-6.714843-4.714843-8.460937-.148438-.085937-.269532-.207031-.351563-.355469zm-9.714844.003906c-.082031.144532-.203125.265626-.347656.351563-2.835937 1.746094-4.71875 4.863281-4.71875 8.460937 0 .167969.003906.332032.011719.496094.164062-3.386718 2.003906-6.300781 4.707031-7.964844.464844-.277343.621094-.875.347656-1.34375zm3.867188 8.8125v.992188c0 .546875.445312.992188.992187.992188h6.945313c.355469.003906.6875-.183594.867187-.492188.183594-.304688.183594-.6875.003906-.996094-.179687.3125-.511718.5-.871093.496094h-6.945313c-.546875 0-.992187-.445312-.992187-.992188zm-10.90625.5c-.003907.164063-.007813.328126-.007813.492188 0 6.578125 5.324219 11.90625 11.90625 11.90625 6.578125 0 11.902344-5.328125 11.902344-11.90625 0-.164062-.003906-.328125-.007812-.492188-.261719 6.347657-5.484376 11.40625-11.894532 11.40625-6.414062 0-11.636718-5.058593-11.898437-11.40625zm0 0" fill-opacity=".235294"/><path d="m959.43595 494.598444c-22.04514.31493-39.681251 18.423437-39.36632 40.468577v400.119276c0 22.045139 17.951042 39.838715 39.996181 39.838715h279.973267c14.329341.314931 27.871355-7.243403 35.114758-19.68316 7.243402-12.597222 7.243402-27.871354 0-40.311111-7.243403-12.439757-20.785417-19.998091-35.114758-19.840626h-240.134552v-360.123094c.157466-10.707639-4.094097-21.100348-11.65243-28.816147-7.715799-7.558333-18.108507-11.809896-28.816146-11.65243zm229.584377 25.194444c-17.793576.629862-33.067708 12.754688-37.476736 30.075869-4.409028 17.163715 3.149305 35.114757 18.423438 44.247744 114.162327 70.229514 190.060592 196.044273 190.060592 341.069796 0 222.183509-177.778301 399.96181-399.96181 399.96181-222.340975 0-400.119276-177.778301-400.119276-399.96181 0-145.025523 75.898265-270.840282 190.218058-341.069796 15.431597-9.290452 22.832465-27.556424 18.108507-44.877605s-20.470486-29.288542-38.421528-29.446008c-7.715799 0-15.116667 2.204514-21.572744 6.298612-137.152258 84.243924-228.16719 236.040454-228.16719 409.094797 0 265.171531 214.625176 479.796707 479.954173 479.796707 265.171531 0 479.796707-214.625176 479.796707-479.796707 0-173.054343-91.014932-324.850873-228.16719-409.094797-6.771007-4.409028-14.644271-6.613542-22.675001-6.298612zm0 0" fill="none" stroke="#212121" stroke-linecap="round" stroke-linejoin="round" stroke-width="11.338583" transform="scale(.0248071)"/></svg>

<?xml version="1.0" encoding="UTF-8"?>
<svg xmlns="http://www.w3.org/2000/svg" xmlns:xlink="http://www.w3.org/1999/xlink" width="48pt" height="48pt" viewBox="0 0 48 48" version="1.1">
<defs>
<radialGradient id="radial0" gradientUnits="userSpaceOnUse" cx="450.90894" cy="189.57936" fx="450.90894" fy="189.57936" r="21.166656" gradientTransform="matrix(0.000000261256,-0.117199,-0.210958,-0.000000152308,66.784728,95.392998)">
<stop offset="0" style="stop-color:rgb(0%,0%,0%);stop-opacity:0.313725;"/>
<stop offset="0.222222" style="stop-color:rgb(0%,0%,0%);stop-opacity:0.27451;"/>
<stop offset="1" style="stop-color:rgb(0%,0%,0%);stop-opacity:0;"/>
</radialGradient>
<radialGradient id="radial1" gradientUnits="userSpaceOnUse" cx="450.90894" cy="189.57936" fx="450.90894" fy="189.57936" r="21.166656" gradientTransform="matrix(-0.000000261256,0.117199,0.210958,0.000000152308,-19.155181,-11.291222)">
<stop offset="0" style="stop-color:rgb(0%,0%,0%);stop-opacity:0.313725;"/>
<stop offset="0.222222" style="stop-color:rgb(0%,0%,0%);stop-opacity:0.27451;"/>
<stop offset="1" style="stop-color:rgb(0%,0%,0%);stop-opacity:0;"/>
</radialGradient>
<radialGradient id="radial2" gradientUnits="userSpaceOnUse" cx="450.90894" cy="189.57936" fx="450.90894" fy="189.57936" r="21.166656" gradientTransform="matrix(-0.000000261256,-0.117199,0.210958,-0.000000152308,-19.155181,95.392998)">
<stop offset="0" style="stop-color:rgb(0%,0%,0%);stop-opacity:0.313725;"/>
<stop offset="0.222222" style="stop-color:rgb(0%,0%,0%);stop-opacity:0.27451;"/>
<stop offset="1" style="stop-color:rgb(0%,0%,0%);stop-opacity:0;"/>
</radialGradient>
<radialGradient id="radial3" gradientUnits="userSpaceOnUse" cx="450.90894" cy="189.57936" fx="450.90894" fy="189.57936" r="21.166656" gradientTransform="matrix(0.000000261256,0.117199,-0.210958,0.000000152308,66.784725,-11.291223)">
<stop offset="0" style="stop-color:rgb(0%,0%,0%);stop-opacity:0.313725;"/>
<stop offset="0.222222" style="stop-color:rgb(0%,0%,0%);stop-opacity:0.27451;"/>
<stop offset="1" style="stop-color:rgb(0%,0%,0%);stop-opacity:0;"/>
</radialGradient>
<linearGradient id="linear0" gradientUnits="userSpaceOnUse" x1="255.32306" y1="233.5" x2="255.32304" y2="254.66666" gradientTransform="matrix(0.0200401,0,0,0.093759,18.698079,20.158175)">
<stop offset="0" style="stop-color:rgb(0%,0%,0%);stop-opacity:0.27451;"/>
<stop offset="1" style="stop-color:rgb(0%,0%,0%);stop-opacity:0;"/>
</linearGradient>
<linearGradient id="linear1" gradientUnits="userSpaceOnUse" x1="254" y1="-168.66667" x2="254" y2="233.5" gradientTransform="matrix(1,0,0,1,0,0)">
<stop offset="0" style="stop-color:rgb(38.039216%,38.039216%,38.039216%);stop-opacity:1;"/>
<stop offset="1" style="stop-color:rgb(25.882353%,25.882353%,25.882353%);stop-opacity:1;"/>
</linearGradient>
<linearGradient id="linear2" gradientUnits="userSpaceOnUse" x1="960" y1="1695.1182" x2="960" y2="175.11813" gradientTransform="matrix(0.0248071,0,0,0.0248071,0,0)">
<stop offset="0" style="stop-color:rgb(74.117647%,74.117647%,74.117647%);stop-opacity:1;"/>
<stop offset="1" style="stop-color:rgb(87.843137%,87.843137%,87.843137%);stop-opacity:1;"/>
</linearGradient>
</defs>
<g id="surface1">
<path style=" stroke:none;fill-rule:nonzero;fill:url(#radial0);" d="M 27.289062 42.050781 L 31.257812 42.050781 L 31.257812 40.066406 L 27.289062 40.066406 Z M 27.289062 42.050781 "/>
<path style=" stroke:none;fill-rule:nonzero;fill:url(#radial1);" d="M 20.339844 42.050781 L 16.371094 42.050781 L 16.371094 44.035156 L 20.339844 44.035156 Z M 20.339844 42.050781 "/>
<path style=" stroke:none;fill-rule:nonzero;fill:url(#radial2);" d="M 20.339844 42.050781 L 16.371094 42.050781 L 16.371094 40.066406 L 20.339844 40.066406 Z M 20.339844 42.050781 "/>
<path style=" stroke:none;fill-rule:nonzero;fill:url(#radial3);" d="M 27.289062 42.050781 L 31.257812 42.050781 L 31.257812 44.035156 L 27.289062 44.035156 Z M 27.289062 42.050781 "/>
<path style=" stroke:none;fill-rule:nonzero;fill:url(#linear0);" d="M 20.339844 41.554688 L 27.289062 41.554688 L 27.289062 44.035156 L 20.339844 44.035156 Z M 20.339844 41.554688 "/>
<path style="fill-rule:nonzero;fill:url(#linear1);stroke-width:3;stroke-linecap:round;stroke-linejoin:miter;stroke:rgb(20%,20%,20%);stroke-opacity:1;stroke-miterlimit:4;" d="M 254.017409 -168.671091 C 365.048473 -168.671091 455.081542 -78.638022 455.081542 32.434704 C 455.081542 143.465768 365.048473 233.498837 254.017409 233.498837 C 142.944683 233.498837 52.911614 143.465768 52.911614 32.434704 C 52.911614 -78.638022 142.944683 -168.671091 254.017409 -168.671091 Z M 254.017409 -168.671091 " transform="matrix(0.093759,0,0,0.093759,0,20.158175)"/>
<path style=" stroke:none;fill-rule:nonzero;fill:rgb(0%,0%,0%);fill-opacity:0.196078;" d="M 23.816406 42.050781 C 13.371094 42.050781 4.960938 33.640625 4.960938 23.199219 C 4.960938 23.136719 4.960938 23.074219 4.960938 23.011719 C 5.0625 33.371094 13.433594 41.679688 23.816406 41.679688 C 34.199219 41.679688 42.570312 33.371094 42.667969 23.011719 C 42.667969 23.074219 42.667969 23.136719 42.667969 23.199219 C 42.667969 33.640625 34.257812 42.050781 23.816406 42.050781 Z M 23.816406 42.050781 "/>
<path style=" stroke:none;fill-rule:nonzero;fill:rgb(100%,100%,100%);fill-opacity:0.392157;" d="M 23.816406 4.34375 C 13.371094 4.34375 4.960938 12.753906 4.960938 23.199219 C 4.960938 23.257812 4.960938 23.320312 4.960938 23.382812 C 5.0625 13.023438 13.433594 4.714844 23.816406 4.714844 C 34.199219 4.714844 42.570312 13.023438 42.667969 23.382812 C 42.667969 23.320312 42.667969 23.257812 42.667969 23.199219 C 42.667969 12.753906 34.257812 4.34375 23.816406 4.34375 Z M 23.816406 4.34375 "/>
<path style=" stroke:none;fill-rule:nonzero;fill:rgb(12.941176%,12.941176%,12.941176%);fill-opacity:1;" d="M 23.816406 4.203125 C 13.292969 4.203125 4.820312 12.675781 4.820312 23.199219 C 4.820312 33.71875 13.292969 42.191406 23.816406 42.191406 C 34.335938 42.191406 42.808594 33.71875 42.808594 23.199219 C 42.808594 12.675781 34.335938 4.203125 23.816406 4.203125 Z M 23.816406 4.484375 C 34.183594 4.484375 42.527344 12.828125 42.527344 23.199219 C 42.527344 33.566406 34.183594 41.910156 23.816406 41.910156 C 13.445312 41.910156 5.101562 33.566406 5.101562 23.199219 C 5.101562 12.828125 13.445312 4.484375 23.816406 4.484375 Z M 23.816406 4.484375 "/>
<path style=" stroke:none;fill-rule:nonzero;fill:url(#linear2);" d="M 23.800781 12.269531 C 23.253906 12.277344 22.816406 12.726562 22.824219 13.273438 L 22.824219 23.199219 C 22.824219 23.746094 23.269531 24.1875 23.816406 24.1875 L 30.761719 24.1875 C 31.117188 24.195312 31.453125 24.007812 31.632812 23.699219 C 31.8125 23.386719 31.8125 23.007812 31.632812 22.699219 C 31.453125 22.390625 31.117188 22.203125 30.761719 22.207031 L 24.804688 22.207031 L 24.804688 13.273438 C 24.808594 13.007812 24.703125 12.75 24.515625 12.558594 C 24.324219 12.371094 24.066406 12.265625 23.800781 12.269531 Z M 29.496094 12.894531 C 29.054688 12.910156 28.675781 13.210938 28.566406 13.640625 C 28.457031 14.066406 28.644531 14.511719 29.023438 14.738281 C 31.855469 16.480469 33.738281 19.601562 33.738281 23.199219 C 33.738281 28.710938 29.328125 33.121094 23.816406 33.121094 C 18.300781 33.121094 13.890625 28.710938 13.890625 23.199219 C 13.890625 19.601562 15.773438 16.480469 18.609375 14.738281 C 18.992188 14.507812 19.175781 14.054688 19.058594 13.625 C 18.941406 13.195312 18.550781 12.898438 18.105469 12.894531 C 17.914062 12.894531 17.730469 12.949219 17.570312 13.050781 C 14.167969 15.140625 11.910156 18.90625 11.910156 23.199219 C 11.910156 29.777344 17.234375 35.101562 23.816406 35.101562 C 30.394531 35.101562 35.71875 29.777344 35.71875 23.199219 C 35.71875 18.90625 33.460938 15.140625 30.058594 13.050781 C 29.890625 12.941406 29.695312 12.886719 29.496094 12.894531 Z M 29.496094 12.894531 "/>
<path style=" stroke:none;fill-rule:nonzero;fill:rgb(100%,100%,100%);fill-opacity:1;" d="M 23.800781 12.269531 C 23.253906 12.277344 22.816406 12.726562 22.824219 13.273438 L 22.824219 13.902344 C 22.816406 13.355469 23.253906 12.90625 23.800781 12.898438 C 24.066406 12.894531 24.324219 13 24.515625 13.1875 C 24.703125 13.375 24.808594 13.632812 24.804688 13.902344 L 24.804688 13.273438 C 24.808594 13.007812 24.703125 12.75 24.515625 12.558594 C 24.324219 12.371094 24.066406 12.265625 23.800781 12.269531 Z M 29.496094 12.894531 C 29.183594 12.90625 28.894531 13.0625 28.714844 13.320312 C 28.535156 13.578125 28.488281 13.902344 28.589844 14.199219 C 28.71875 13.804688 29.082031 13.535156 29.496094 13.523438 C 29.695312 13.515625 29.890625 13.570312 30.058594 13.675781 C 33.378906 15.71875 35.609375 19.355469 35.714844 23.519531 C 35.71875 23.410156 35.71875 23.304688 35.71875 23.199219 C 35.71875 18.90625 33.460938 15.140625 30.058594 13.050781 C 29.890625 12.941406 29.695312 12.886719 29.496094 12.894531 Z M 18.105469 12.894531 C 17.914062 12.894531 17.730469 12.949219 17.570312 13.050781 C 14.167969 15.140625 11.910156 18.90625 11.910156 23.199219 C 11.910156 23.304688 11.910156 23.410156 11.914062 23.519531 C 12.019531 19.355469 14.25 15.71875 17.570312 13.675781 C 17.730469 13.574219 17.914062 13.523438 18.105469 13.523438 C 18.53125 13.523438 18.90625 13.796875 19.039062 14.199219 C 19.140625 13.898438 19.089844 13.566406 18.90625 13.308594 C 18.722656 13.050781 18.421875 12.898438 18.105469 12.894531 Z M 24.804688 22.207031 L 24.804688 22.835938 L 30.761719 22.835938 C 31.191406 22.828125 31.578125 23.101562 31.714844 23.511719 C 31.816406 23.207031 31.765625 22.871094 31.574219 22.613281 C 31.386719 22.351562 31.082031 22.203125 30.761719 22.207031 Z M 13.894531 23.511719 C 13.890625 23.613281 13.890625 23.71875 13.890625 23.824219 C 13.890625 29.339844 18.300781 33.75 23.816406 33.75 C 29.328125 33.75 33.738281 29.339844 33.738281 23.824219 C 33.738281 23.71875 33.738281 23.613281 33.734375 23.511719 C 33.570312 28.878906 29.226562 33.121094 23.816406 33.121094 C 18.40625 33.121094 14.058594 28.878906 13.894531 23.511719 Z M 13.894531 23.511719 "/>
<path style=" stroke:none;fill-rule:nonzero;fill:rgb(0%,0%,0%);fill-opacity:0.235294;" d="M 28.671875 14.378906 C 28.398438 14.847656 28.554688 15.449219 29.023438 15.726562 C 31.726562 17.390625 33.5625 20.304688 33.726562 23.691406 C 33.734375 23.527344 33.738281 23.363281 33.738281 23.195312 C 33.738281 19.597656 31.855469 16.480469 29.023438 14.734375 C 28.875 14.648438 28.753906 14.527344 28.671875 14.378906 Z M 18.957031 14.382812 C 18.875 14.527344 18.753906 14.648438 18.609375 14.734375 C 15.773438 16.480469 13.890625 19.597656 13.890625 23.195312 C 13.890625 23.363281 13.894531 23.527344 13.902344 23.691406 C 14.066406 20.304688 15.90625 17.390625 18.609375 15.726562 C 19.074219 15.449219 19.230469 14.851562 18.957031 14.382812 Z M 22.824219 23.195312 L 22.824219 24.1875 C 22.824219 24.734375 23.269531 25.179688 23.816406 25.179688 L 30.761719 25.179688 C 31.117188 25.183594 31.449219 24.996094 31.628906 24.6875 C 31.8125 24.382812 31.8125 24 31.632812 23.691406 C 31.453125 24.003906 31.121094 24.191406 30.761719 24.1875 L 23.816406 24.1875 C 23.269531 24.1875 22.824219 23.742188 22.824219 23.195312 Z M 11.917969 23.695312 C 11.914062 23.859375 11.910156 24.023438 11.910156 24.1875 C 11.910156 30.765625 17.234375 36.09375 23.816406 36.09375 C 30.394531 36.09375 35.71875 30.765625 35.71875 24.1875 C 35.71875 24.023438 35.714844 23.859375 35.710938 23.695312 C 35.449219 30.042969 30.226562 35.101562 23.816406 35.101562 C 17.402344 35.101562 12.179688 30.042969 11.917969 23.695312 Z M 11.917969 23.695312 "/>
<path style="fill:none;stroke-width:11.338583;stroke-linecap:round;stroke-linejoin:round;stroke:rgb(12.941176%,12.941176%,12.941176%);stroke-opacity:1;stroke-miterlimit:4;" d="M 959.43595 494.598444 C 937.39081 494.913374 919.754699 513.021881 920.06963 535.067021 L 920.06963 935.186297 C 920.06963 957.231436 938.020672 975.025012 960.065811 975.025012 L 1240.039078 975.025012 C 1254.368419 975.339943 1267.910433 967.781609 1275.153836 955.341852 C 1282.397238 942.74463 1282.397238 927.470498 1275.153836 915.030741 C 1267.910433 902.590984 1254.368419 895.03265 1240.039078 895.190115 L 999.904526 895.190115 L 999.904526 535.067021 C 1000.061992 524.359382 995.810429 513.966673 988.252096 506.250874 C 980.536297 498.692541 970.143589 494.440978 959.43595 494.598444 Z M 1189.020327 519.792888 C 1171.226751 520.42275 1155.952619 532.547576 1151.543591 549.868757 C 1147.134563 567.032472 1154.692896 584.983514 1169.967029 594.116501 C 1284.129356 664.346015 1360.027621 790.160774 1360.027621 935.186297 C 1360.027621 1157.369806 1182.24932 1335.148107 960.065811 1335.148107 C 737.724836 1335.148107 559.946535 1157.369806 559.946535 935.186297 C 559.946535 790.160774 635.8448 664.346015 750.164593 594.116501 C 765.59619 584.826049 772.997058 566.560077 768.2731 549.238896 C 763.549142 531.917715 747.802614 519.950354 729.851572 519.792888 C 722.135773 519.792888 714.734905 521.997402 708.278828 526.0915 C 571.12657 610.335424 480.111638 762.131954 480.111638 935.186297 C 480.111638 1200.357828 694.736814 1414.983004 960.065811 1414.983004 C 1225.237342 1414.983004 1439.862518 1200.357828 1439.862518 935.186297 C 1439.862518 762.131954 1348.847586 610.335424 1211.695328 526.0915 C 1204.924321 521.682472 1197.051057 519.477958 1189.020327 519.792888 Z M 1189.020327 519.792888 " transform="matrix(0.0248071,0,0,0.0248071,0,0)"/>
</g>
</svg>
